Gruvbox-Plus-Dark/actions/16/im-skype.svg

<svg xmlns="http://www.w3.org/2000/svg" width="16" height="16" version="1">
 <defs>
  <style id="current-color-scheme" type="text/css">
   .ColorScheme-Text { color:#ebdbb2; } .ColorScheme-Highlight { color:#458588; }
  </style>
 </defs>
 <path style="fill:currentColor" class="ColorScheme-Text" d="M 4.5 1 A 3.5 3.5 0 0 0 1 4.5 A 3.5 3.5 0 0 0 2.0859375 7.0292969 A 6 6 0 0 0 2 8 A 6 6 0 0 0 8 14 A 6 6 0 0 0 8.9707031 13.917969 A 3.5 3.5 0 0 0 11.5 15 A 3.5 3.5 0 0 0 15 11.5 A 3.5 3.5 0 0 0 13.914062 8.9707031 A 6 6 0 0 0 14 8 A 6 6 0 0 0 8 2 A 6 6 0 0 0 7.0292969 2.0820312 A 3.5 3.5 0 0 0 4.5 1 z M 8.1269531 4 C 10.100953 4 11.119141 5.0423969 11.119141 5.6542969 C 11.119141 6.2681969 10.823844 6.359375 10.339844 6.359375 C 9.3988437 6.359375 9.7844844 5.2265625 8.0214844 5.2265625 C 7.4374844 5.2265625 6.7089844 5.4920281 6.7089844 6.1738281 C 6.7089844 6.7219281 7.3551406 6.9239781 8.4941406 7.2050781 C 10.212141 7.6650781 11.5 8.1241719 11.5 9.7011719 C 11.5 11.232172 10.253297 12 8.2792969 12 C 6.3061969 12 5.0449219 10.819031 5.0449219 10.207031 C 5.0449219 9.5950312 5.2773187 9.4414063 5.7617188 9.4414062 C 6.7045188 9.4414062 6.5786969 10.730469 8.3417969 10.730469 C 8.9267969 10.730469 9.7910156 10.463297 9.7910156 9.7792969 C 9.7910156 9.2332969 9.7451406 9.0440312 8.4941406 8.7070312 C 7.1581406 8.5260312 5 8.0909281 5 6.4238281 C 5 4.8929281 6.1556062 4.0019531 8.1289062 4.0019531 L 8.1269531 4 z"/>
 <path style="fill:currentColor" class="ColorScheme-Text" d="M -25.069,-9.0812"/>
</svg>

<svg width="16" height="16" version="1" xmlns="http://www.w3.org/2000/svg">
  <defs>
    <style type="text/css">.ColorScheme-Text { color:#ebdbb2; } .ColorScheme-Highlight { color:#458588; }</style>
  </defs>
  <path class="ColorScheme-Text" d="m4.5 1c-1.933 0-3.5 1.567-3.5 3.5 0.001347 0.956 0.3937 1.87 1.086 2.529-0.05492 0.3207-0.08366 0.6453-0.08594 0.9707 0 3.314 2.686 6 6 6 0.3253-9.88e-4 0.6499-0.02842 0.9707-0.08203 0.6601 0.6908 1.574 1.082 2.529 1.082 1.933 0 3.5-1.567 3.5-3.5-0.001347-0.956-0.3937-1.87-1.086-2.529 0.05492-0.3207 0.08366-0.6453 0.08594-0.9707 0-3.314-2.686-6-6-6-0.3253 9.878e-4 -0.6499 0.02842-0.9707 0.08203-0.6601-0.6908-1.574-1.082-2.529-1.082zm6.619 4.654c0 0.6139-0.2953 0.7051-0.7793 0.7051-0.941 0-0.5554-1.133-2.318-1.133-0.584 0-1.312 0.2655-1.312 0.9473 0 0.5481 0.6462 0.7502 1.785 1.031 1.718 0.46 3.006 0.9191 3.006 2.496 0 1.531-1.247 2.299-3.221 2.299-1.973 0-3.234-1.181-3.234-1.793 0-0.612 0.2324-0.7656 0.7168-0.7656 0.9428 0 0.817 1.289 2.58 1.289 0.585 0 1.449-0.2672 1.449-0.9512 0-0.546-0.04588-0.7353-1.297-1.072-1.336-0.181-3.494-0.6161-3.494-2.283 0-1.531 1.156-2.422 3.128-2.423 1.973-9.765e-4 2.991 1.041 2.991 1.653z" fill="currentColor"/>
  <path class="ColorScheme-Text" d="m-25.07-9.081" fill="currentColor"/>
</svg>
